svg/human_edit.svg

<svg xmlns="http://www.w3.org/2000/svg" viewBox="0 0 24 24"><path d="m19.07 14.88 2.05 2.05L15.06 23H13v-2.06zm1.97-1.75c.14 0 .27.06.38.17l1.28 1.28c.22.21.22.56 0 .77l-1 1-2.05-2.05 1-1c.11-.11.25-.17.39-.17M21 9h-6v7l-2 2v-2h-2v6H9V9H3V7h18zm-9-7c1.1 0 2 .9 2 2s-.9 2-2 2-2-.9-2-2 .9-2 2-2"/></svg>

<?xml version="1.0" encoding="UTF-8"?><!DOCTYPE svg PUBLIC "-//W3C//DTD SVG 1.1//EN" "http://www.w3.org/Graphics/SVG/1.1/DTD/svg11.dtd"><svg xmlns="http://www.w3.org/2000/svg" xmlns:xlink="http://www.w3.org/1999/xlink" version="1.1" id="mdi-human-edit" width="24" height="24" viewBox="0 0 24 24"><path d="M19.07 14.88L21.12 16.93L15.06 23H13V20.94L19.07 14.88M21.04 13.13C21.18 13.13 21.31 13.19 21.42 13.3L22.7 14.58C22.92 14.79 22.92 15.14 22.7 15.35L21.7 16.35L19.65 14.3L20.65 13.3C20.76 13.19 20.9 13.13 21.04 13.13M21 9H15V16L13 18V16H11V22H9V9H3V7H21V9M12 2C13.1 2 14 2.9 14 4C14 5.1 13.1 6 12 6C10.9 6 10 5.1 10 4C10 2.9 10.9 2 12 2Z" /></svg>
